imgs/icons/main_page/info_ping.svg

<svg width="34" height="32" viewBox="0 0 34 32" fill="none" xmlns="http://www.w3.org/2000/svg">
<path d="M11.3 6.4998L9.9 5.0998C8.1 6.8998 7 9.3998 7 12.1998C7 14.9998 8.1 17.4998 9.9 19.2998L11.3 17.8998C9.9 16.3998 9 14.3998 9 12.1998C9 9.9998 9.9 7.9998 11.3 6.4998ZM7.1 2.2998L5.7 0.799805C2.8 3.6998 1 7.6998 1 12.1998C1 16.5998 2.8 20.5998 5.7 23.4998L7.1 22.0998C4.6 19.4998 3 15.9998 3 12.1998C3 8.2998 4.6 4.7998 7.1 2.2998ZM25 12.1998C25 14.3998 24.1 16.3998 22.6 17.8998L24 19.2998C25.8 17.4998 26.9 14.9998 26.9 12.1998C26.9 9.3998 25.8 6.8998 24 5.0998L22.6 6.4998C24.1 7.9998 25 9.9998 25 12.1998ZM31 12.1998C31 16.0998 29.4 19.5998 26.9 22.0998L28.3 23.4998C31.2 20.5998 33 16.5998 33 12.1998C33 7.7998 31.2 3.7998 28.3 0.899805L26.9 2.2998C29.4 4.7998 31 8.2998 31 12.1998ZM17 14.1998V31.1998C18.1 31.1998 19 30.2998 19 29.1998V14.1998H17ZM17 8.1998V14.1998H19V15.6998C20.2 14.9998 21 13.6998 21 12.1998C21 11.0998 20.5 10.0998 19.8 9.3998C19.1 8.5998 18.1 8.1998 17 8.1998Z" fill="url(#paint0_linear_402_20)"/>
<path d="M22.7 6.4998L24.1 5.0998C25.9 6.8998 27 9.3998 27 12.1998C27 14.9998 25.9 17.4998 24.1 19.2998L22.7 17.8998C24.1 16.3998 25 14.3998 25 12.1998C25 9.9998 24.1 7.9998 22.7 6.4998ZM26.9 2.2998L28.3 0.799805C31.2 3.6998 33 7.6998 33 12.1998C33 16.5998 31.2 20.5998 28.3 23.4998L26.9 22.0998C29.4 19.4998 31 15.9998 31 12.1998C31 8.2998 29.4 4.7998 26.9 2.2998ZM9 12.1998C9 14.3998 9.9 16.3998 11.4 17.8998L10 19.2998C8.2 17.4998 7.1 14.9998 7.1 12.1998C7.1 9.3998 8.2 6.8998 10 5.0998L11.4 6.4998C9.9 7.9998 9 9.9998 9 12.1998ZM3 12.1998C3 16.0998 4.6 19.5998 7.1 22.0998L5.7 23.4998C2.8 20.5998 1 16.5998 1 12.1998C1 7.7998 2.8 3.7998 5.7 0.899805L7.1 2.2998C4.6 4.7998 3 8.2998 3 12.1998ZM17 14.1998V31.1998C15.9 31.1998 15 30.2998 15 29.1998V14.1998H17ZM17 8.1998V14.1998H15V15.6998C13.8 14.9998 13 13.6998 13 12.1998C13 11.0998 13.5 10.0998 14.2 9.3998C14.9 8.5998 15.9 8.1998 17 8.1998Z" fill="url(#paint1_linear_402_20)"/>
<defs>
<linearGradient id="paint0_linear_402_20" x1="17" y1="31.1598" x2="17" y2="0.839806" gradientUnits="userSpaceOnUse">
<stop stop-color="#0C0C0C"/>
<stop offset="0.0621467" stop-color="#0F0F0F"/>
<stop offset="0.0994757" stop-color="#171717"/>
<stop offset="0.1126" stop-color="#1C1C1C"/>
<stop offset="0.1766" stop-color="#1F1F1F"/>
<stop offset="0.2256" stop-color="#282929"/>
<stop offset="0.2531" stop-color="#313232"/>
<stop offset="0.3645" stop-color="#363636"/>
<stop offset="0.4508" stop-color="#3E3E3E"/>
<stop offset="1" stop-color="#3D3D3E"/>
</linearGradient>
<linearGradient id="paint1_linear_402_20" x1="17" y1="31.1598" x2="17" y2="0.839806" gradientUnits="userSpaceOnUse">
<stop stop-color="#0C0C0C"/>
<stop offset="0.0621467" stop-color="#0F0F0F"/>
<stop offset="0.0994757" stop-color="#171717"/>
<stop offset="0.1126" stop-color="#1C1C1C"/>
<stop offset="0.1766" stop-color="#1F1F1F"/>
<stop offset="0.2256" stop-color="#282929"/>
<stop offset="0.2531" stop-color="#313232"/>
<stop offset="0.3645" stop-color="#363636"/>
<stop offset="0.4508" stop-color="#3E3E3E"/>
<stop offset="1" stop-color="#3D3D3E"/>
</linearGradient>
</defs>
</svg>

<?xml version="1.0" encoding="utf-8"?>
<!-- Generator: Adobe Illustrator 24.1.2, SVG Export Plug-In . SVG Version: 6.00 Build 0)  -->
<svg version="1.1" id="Слой_1" xmlns="http://www.w3.org/2000/svg" xmlns:xlink="http://www.w3.org/1999/xlink" x="0px" y="0px"
	 width="34px" height="32px" viewBox="0 0 34 32" style="enable-background:new 0 0 34 32;" xml:space="preserve">
<style type="text/css">
	.st0{fill:url(#SVGID_1_);}
</style>
<linearGradient id="SVGID_1_" gradientUnits="userSpaceOnUse" x1="17" y1="31.16" x2="17" y2="0.84">
	<stop  offset="0" style="stop-color:#0C0C0C"/>
	<stop  offset="6.214674e-02" style="stop-color:#0F0F0F"/>
	<stop  offset="9.947575e-02" style="stop-color:#171717"/>
	<stop  offset="0.1126" style="stop-color:#1C1C1C"/>
	<stop  offset="0.1766" style="stop-color:#1F1F1F"/>
	<stop  offset="0.2256" style="stop-color:#282929"/>
	<stop  offset="0.2531" style="stop-color:#313232"/>
	<stop  offset="0.3645" style="stop-color:#363636"/>
	<stop  offset="0.4508" style="stop-color:#3E3E3E"/>
	<stop  offset="1" style="stop-color:#3D3D3E"/>
</linearGradient>
<path class="st0" d="M11.3,6.5L9.9,5.1C8.1,6.9,7,9.4,7,12.2c0,2.8,1.1,5.3,2.9,7.1l1.4-1.4C9.9,16.4,9,14.4,9,12.2
	C9,10,9.9,8,11.3,6.5z M7.1,2.3L5.7,0.8C2.8,3.7,1,7.7,1,12.2c0,4.4,1.8,8.4,4.7,11.3l1.4-1.4C4.6,19.5,3,16,3,12.2
	C3,8.3,4.6,4.8,7.1,2.3z M15,14.2v15c0,1.1,0.9,2,2,2v-17H15z M14.2,9.3c-0.7,0.7-1.2,1.7-1.2,2.8c0,1.5,0.8,2.8,2,3.5v-1.5h2v-6
	C15.9,8.2,14.9,8.6,14.2,9.3z M25,12.2c0,2.2-0.9,4.2-2.4,5.7l1.4,1.4c1.8-1.8,2.9-4.3,2.9-7.1c0-2.8-1.1-5.3-2.9-7.1l-1.4,1.4
	C24.1,8,25,10,25,12.2z M31,12.2c0,3.9-1.6,7.4-4.1,9.9l1.4,1.4c2.9-2.9,4.7-6.9,4.7-11.3c0-4.4-1.8-8.4-4.7-11.3l-1.4,1.4
	C29.4,4.8,31,8.3,31,12.2z M17,14.2v17c1.1,0,2-0.9,2-2v-15H17z M17,8.2v6h2v1.5c1.2-0.7,2-2,2-3.5c0-1.1-0.5-2.1-1.2-2.8
	C19.1,8.6,18.1,8.2,17,8.2z"/>
</svg>
